X:102
T: Verschlafener Jaeger
N: Q0152S
O: Osteuropa, Tschechoslowakei, Sudetenland
N: Zugehoerigkeit zu dieser Balladengruppe ungeklaert.
R: Ballade, Verfuehrung, verlorene Ehre
M: 4/4
L: 1/4
K: G
D | BBdB | A2c
D | ccec | B2d
G | e2ee | d2B
d | dced | B2z

